packages/ffe-icons/icons/open/400/sm/sprinkler.svg

<svg xmlns="http://www.w3.org/2000/svg" height="20" viewBox="0 -960 960 960" width="20"><path d="M480.211-480Q465-480 454.5-490.289q-10.5-10.29-10.5-25.5Q444-531 454.289-541.5q10.29-10.5 25.5-10.5Q495-552 505.5-541.711q10.5 10.29 10.5 25.5Q516-501 505.711-490.5q-10.29 10.5-25.5 10.5Zm0-156Q465-636 454.5-646.289q-10.5-10.29-10.5-25.5Q444-687 454.289-697.5q10.29-10.5 25.5-10.5Q495-708 505.5-697.711q10.5 10.29 10.5 25.5Q516-657 505.711-646.5q-10.29 10.5-25.5 10.5Zm0-156Q465-792 454.5-802.289q-10.5-10.29-10.5-25.5Q444-843 454.289-853.5q10.29-10.5 25.5-10.5Q495-864 505.5-853.711q10.5 10.29 10.5 25.5Q516-813 505.711-802.5q-10.29 10.5-25.5 10.5Zm108 384Q573-408 562.5-418.289q-10.5-10.29-10.5-25.5Q552-459 562.289-469.5q10.29-10.5 25.5-10.5Q603-480 613.5-469.711q10.5 10.29 10.5 25.5Q624-429 613.711-418.5q-10.29 10.5-25.5 10.5Zm120-108Q693-516 682.5-526.289q-10.5-10.29-10.5-25.5Q672-567 682.289-577.5q10.29-10.5 25.5-10.5Q723-588 733.5-577.711q10.5 10.29 10.5 25.5Q744-537 733.711-526.5q-10.29 10.5-25.5 10.5Zm120-108Q813-624 802.5-634.289q-10.5-10.29-10.5-25.5Q792-675 802.289-685.5q10.29-10.5 25.5-10.5Q843-696 853.5-685.711q10.5 10.29 10.5 25.5Q864-645 853.711-634.5q-10.29 10.5-25.5 10.5Zm-456 216Q357-408 346.5-418.289q-10.5-10.29-10.5-25.5Q336-459 346.289-469.5q10.29-10.5 25.5-10.5Q387-480 397.5-469.711q10.5 10.29 10.5 25.5Q408-429 397.711-418.5q-10.29 10.5-25.5 10.5Zm-120-108Q237-516 226.5-526.289q-10.5-10.29-10.5-25.5Q216-567 226.289-577.5q10.29-10.5 25.5-10.5Q267-588 277.5-577.711q10.5 10.29 10.5 25.5Q288-537 277.711-526.5q-10.29 10.5-25.5 10.5Zm-120-108Q117-624 106.5-634.289q-10.5-10.29-10.5-25.5Q96-675 106.289-685.5q10.29-10.5 25.5-10.5Q147-696 157.5-685.711q10.5 10.29 10.5 25.5Q168-645 157.711-634.5q-10.29 10.5-25.5 10.5ZM444-240H324q-15.3 0-25.65-10.289-10.35-10.29-10.35-25.5Q288-291 298.35-301.5 308.7-312 324-312h312q15.3 0 25.65 10.289 10.35 10.29 10.35 25.5Q672-261 661.65-250.5 651.3-240 636-240H516v107.737Q516-117 505.711-106.5q-10.29 10.5-25.5 10.5Q465-96 454.5-106.35 444-116.7 444-132v-108Z"/></svg>

<svg xmlns="http://www.w3.org/2000/svg" height="20" viewBox="0 -960 960 960" width="20"><path d="M480.21-480q-15.21 0-25.71-10.29t-10.5-25.5q0-15.21 10.29-25.71t25.5-10.5q15.21 0 25.71 10.29t10.5 25.5q0 15.21-10.29 25.71t-25.5 10.5Zm0-156q-15.21 0-25.71-10.29t-10.5-25.5q0-15.21 10.29-25.71t25.5-10.5q15.21 0 25.71 10.29t10.5 25.5q0 15.21-10.29 25.71t-25.5 10.5Zm0-156q-15.21 0-25.71-10.29t-10.5-25.5q0-15.21 10.29-25.71t25.5-10.5q15.21 0 25.71 10.29t10.5 25.5q0 15.21-10.29 25.71t-25.5 10.5Zm108 384q-15.21 0-25.71-10.29t-10.5-25.5q0-15.21 10.29-25.71t25.5-10.5q15.21 0 25.71 10.29t10.5 25.5q0 15.21-10.29 25.71t-25.5 10.5Zm120-108q-15.21 0-25.71-10.29t-10.5-25.5q0-15.21 10.29-25.71t25.5-10.5q15.21 0 25.71 10.29t10.5 25.5q0 15.21-10.29 25.71t-25.5 10.5Zm120-108q-15.21 0-25.71-10.29t-10.5-25.5q0-15.21 10.29-25.71t25.5-10.5q15.21 0 25.71 10.29t10.5 25.5q0 15.21-10.29 25.71t-25.5 10.5Zm-456 216q-15.21 0-25.71-10.29t-10.5-25.5q0-15.21 10.29-25.71t25.5-10.5q15.21 0 25.71 10.29t10.5 25.5q0 15.21-10.29 25.71t-25.5 10.5Zm-120-108q-15.21 0-25.71-10.29t-10.5-25.5q0-15.21 10.29-25.71t25.5-10.5q15.21 0 25.71 10.29t10.5 25.5q0 15.21-10.29 25.71t-25.5 10.5Zm-120-108q-15.21 0-25.71-10.29T96-659.79q0-15.21 10.29-25.71t25.5-10.5q15.21 0 25.71 10.29t10.5 25.5q0 15.21-10.29 25.71t-25.5 10.5ZM444-240H324q-15.3 0-25.65-10.29Q288-260.58 288-275.79t10.35-25.71Q308.7-312 324-312h312q15.3 0 25.65 10.29Q672-291.42 672-276.21t-10.35 25.71Q651.3-240 636-240H516v107.74q0 15.26-10.29 25.76Q495.42-96 480.21-96t-25.71-10.35Q444-116.7 444-132v-108Z"/></svg>
